src/assets/site/social_icons/skype.svg

<?xml version="1.0" encoding="UTF-8"?>
<svg width="40px" height="40px" viewBox="0 0 44 44" version="1.1" xmlns="http://www.w3.org/2000/svg" xmlns:xlink="http://www.w3.org/1999/xlink">
    <!-- Generator: Sketch 48.2 (47327) - http://www.bohemiancoding.com/sketch -->
    <title>skype</title>
    <desc>Created with Sketch.</desc>
    <defs></defs>
    <g id="social-icons" stroke="none" stroke-width="1" fill="none" fill-rule="evenodd" transform="translate(-40.000000, -160.000000)">
        <g id="skype" transform="translate(40.000000, 160.000000)">
            <rect id="Rectangle" x="0" y="0" width="44" height="44"></rect>
            <circle id="Oval" stroke="#343A40" stroke-width="2" cx="22" cy="22" r="21"></circle>
            <path d="M33.3099718,24.5474783 C33.4835372,23.7655652 33.5738476,22.9572174 33.5738476,22.1252174 C33.5738476,15.8935652 28.4501411,10.8403478 22.1284102,10.8403478 C21.4609595,10.8403478 20.8076199,10.8973913 20.1698024,11.0045217 C19.1481656,10.370087 17.9374412,10 16.6392286,10 C12.971778,10 10,12.930087 10,16.546087 C10,17.7537391 10.3344309,18.8848696 10.9129821,19.856 C10.7605833,20.5892174 10.6815616,21.3488696 10.6815616,22.1252174 C10.6815616,28.3596522 15.8052681,33.4114783 22.1284102,33.4114783 C22.8438382,33.4114783 23.5451552,33.3474783 24.2238946,33.2236522 C25.1594544,33.7189565 26.2276576,34 27.3621825,34 C31.028222,34 34,31.069913 34,27.453913 C34,26.4104348 33.7516463,25.424 33.3099718,24.5474783 L33.3099718,24.5474783 Z M27.9082785,27.4873043 C27.3805268,28.226087 26.5973659,28.8118261 25.5827846,29.2278261 C24.579492,29.6382609 23.3758231,29.8469565 22.0070555,29.8469565 C20.3617121,29.8469565 18.9844779,29.5617391 17.9078081,28.9996522 C17.1387582,28.5906087 16.505174,28.0368696 16.0225776,27.3495652 C15.537159,26.6594783 15.2902164,25.9735652 15.2902164,25.3113043 C15.2902164,24.898087 15.4510818,24.5405217 15.7671684,24.2469565 C16.0818438,23.9547826 16.4825964,23.8086957 16.9623706,23.8086957 C17.3560677,23.8086957 17.696143,23.9241739 17.9713076,24.1523478 C18.2337723,24.3735652 18.4595484,24.7005217 18.6429915,25.1206957 C18.8447789,25.5798261 19.0663217,25.9652174 19.2991533,26.2685217 C19.5235183,26.5634783 19.8480715,26.8097391 20.2587018,27.0017391 C20.6735654,27.1951304 21.2337723,27.293913 21.9223895,27.293913 C22.8678269,27.293913 23.6439323,27.0949565 24.2281279,26.7012174 C24.7982126,26.3186087 25.0747883,25.8566957 25.0747883,25.2932174 C25.0747883,24.848 24.9308561,24.4987826 24.6331138,24.221913 C24.3212606,23.9353043 23.9106303,23.7126957 23.4111007,23.5582609 C22.8918156,23.3996522 22.1848542,23.2257391 21.3113829,23.0448696 C20.1232361,22.7944348 19.1142992,22.4966957 18.3113829,22.1613913 C17.4901223,21.8163478 16.8283161,21.3377391 16.3443086,20.7408696 C15.8532455,20.1342609 15.6048918,19.3746087 15.6048918,18.4786087 C15.6048918,17.6271304 15.8659454,16.8577391 16.3809972,16.1954783 C16.8932267,15.5373913 17.6411101,15.0253913 18.6034807,14.6761739 C19.5545626,14.3297391 20.6834431,14.1530435 21.9619003,14.1530435 C22.9849483,14.1530435 23.8824083,14.2713043 24.6331138,14.4994783 C25.3880527,14.7304348 26.023048,15.0434783 26.5239887,15.4288696 C27.0263405,15.8170435 27.4031044,16.2302609 27.6373471,16.6615652 C27.874412,17.0970435 27.9943556,17.5297391 27.9943556,17.949913 C27.9943556,18.3533913 27.8377234,18.7193043 27.5244591,19.0393043 C27.2111947,19.3606957 26.8160865,19.5234783 26.3490122,19.5234783 C25.925682,19.5234783 25.5940734,19.4205217 25.364064,19.2215652 C25.1495767,19.0323478 24.9280339,18.7415652 24.6810913,18.3227826 C24.3960489,17.7885217 24.0503293,17.3669565 23.65381,17.0706087 C23.2685795,16.7812174 22.6251176,16.6351304 21.7417686,16.6351304 C20.9219191,16.6351304 20.2544685,16.797913 19.7577611,17.117913 C19.280809,17.4267826 19.0493885,17.7801739 19.0493885,18.2003478 C19.0493885,18.4577391 19.1241769,18.672 19.2779868,18.8556522 C19.4402634,19.0546087 19.6702728,19.2243478 19.9595484,19.3676522 C20.2601129,19.517913 20.5719661,19.6361739 20.8809972,19.7196522 C21.1984948,19.8073043 21.733302,19.9353043 22.4642521,20.1022609 C23.3913452,20.2998261 24.24365,20.5182609 24.9957667,20.7561739 C25.7577611,20.9982609 26.4167451,21.2918261 26.9543744,21.6382609 C27.5018815,21.9902609 27.9365005,22.4410435 28.2441204,22.9808696 C28.5531515,23.5234783 28.7097836,24.1926957 28.7097836,24.9704348 C28.7097836,25.8984348 28.4402634,26.7471304 27.9082785,27.4873043 L27.9082785,27.4873043 Z" id="Shape" fill="#343A40"></path>
        </g>
    </g>
</svg>

<svg width="44" height="44" xmlns="http://www.w3.org/2000/svg"><g fill="none" fill-rule="evenodd"><path d="M0 0h44v44H0z"/><circle stroke="#343A40" stroke-width="2" cx="22" cy="22" r="21"/><path d="M33.31 24.55A11.37 11.37 0 0 0 20.17 11 6.67 6.67 0 0 0 10 16.54c0 1.2.33 2.33.91 3.3a11.37 11.37 0 0 0 13.31 13.37c.94.5 2 .78 3.14.78A6.6 6.6 0 0 0 34 27.45c0-1.04-.25-2.03-.69-2.9zm-5.4 2.94a5.2 5.2 0 0 1-2.33 1.74c-1 .4-2.2.62-3.57.62a8.85 8.85 0 0 1-4.1-.85c-.77-.4-1.4-.96-1.89-1.65a3.56 3.56 0 0 1-.73-2.04c0-.41.16-.77.48-1.06.31-.3.71-.44 1.2-.44.39 0 .73.11 1 .34.26.22.49.55.67.97.2.46.43.85.66 1.15.22.3.55.54.96.73a4 4 0 0 0 1.66.3c.95 0 1.72-.2 2.3-.6.58-.38.85-.84.85-1.4 0-.45-.14-.8-.44-1.08s-.72-.5-1.22-.66c-.52-.16-1.23-.33-2.1-.52-1.19-.25-2.2-.54-3-.88a4.95 4.95 0 0 1-1.97-1.42 3.5 3.5 0 0 1-.74-2.26c0-.85.27-1.62.78-2.28a4.83 4.83 0 0 1 2.22-1.52 9.85 9.85 0 0 1 3.36-.53c1.02 0 1.92.12 2.67.35.76.23 1.4.54 1.9.93s.87.8 1.1 1.23c.24.44.36.87.36 1.29 0 .4-.15.77-.47 1.09-.3.32-.7.48-1.17.48-.42 0-.76-.1-.99-.3a3.71 3.71 0 0 1-.68-.9 3.72 3.72 0 0 0-1.03-1.25c-.38-.29-1.02-.43-1.9-.43-.83 0-1.5.16-2 .48-.47.3-.7.66-.7 1.08 0 .26.07.47.23.66.16.2.39.36.68.5.3.16.61.28.92.36.32.09.85.22 1.58.38.93.2 1.78.42 2.54.66.76.24 1.42.53 1.95.88.55.35.99.8 1.3 1.34.3.54.46 1.21.46 1.99 0 .93-.27 1.78-.8 2.52z" fill="#343A40"/></g></svg>
